scalable/folder-remote-symbolic.svg

<svg height="16" viewBox="0 0 16 16" width="16" xmlns="http://www.w3.org/2000/svg"><path d="m2 15h3v1h-3z" fill="#f5fdfe" fill-opacity=".578" opacity=".701" stroke-width=".149"/><path d="m11 15h3v1h-3z" display="block" fill="#f5fdfe" fill-opacity=".578" opacity=".701" stroke-width=".122"/><path d="m7 14v1h-2v1h6v-1h-2v-1z" display="block" fill="#f4f4f7" stroke-width=".034"/><path d="m0 0v13l1 1h14l1-1v-10l-1-1h-6l-2-2zm9 3h6v10h-14v-9h6z" fill="#f4f4f7" stroke-width=".034"/><path d="m2 5v7h12v-8h-5l-2 1z" fill="#eae5fe" opacity=".2" stroke-opacity=".344" stroke-width=".82"/></svg>

<svg xmlns="http://www.w3.org/2000/svg" height="16" width="16">
    <path style="isolation:auto;mix-blend-mode:normal;marker:none" color="#000" overflow="visible" opacity=".701" fill="#f5fdfe" fill-opacity=".578" paint-order="fill markers stroke" d="M2 15h3v1H2z"/>
    <path style="isolation:auto;mix-blend-mode:normal;marker:none" color="#000" display="block" overflow="visible" opacity=".701" fill="#f5fdfe" fill-opacity=".578" paint-order="fill markers stroke" d="M11 15h3v1h-3z"/>
    <path style="isolation:auto;mix-blend-mode:normal;marker:none" d="M7 14v1H5v1h6v-1H9v-1z" color="#000" display="block" overflow="visible" fill="#fff" paint-order="fill markers stroke"/>
    <path d="M0 0v13l1 1h14l1-1V3l-1-1H9L7 0zm9 3h6v10H1V4h6z" fill="#fff"/>
    <path d="M2 5v7h12V4H9L7 5z" style="marker:none" opacity=".2" fill="#eae5fe" paint-order="fill markers stroke"/>
</svg>
